assets/images/StarterX-Badges_Customer-Satisfaction.svg

<?xml version="1.0" encoding="UTF-8"?>
<svg id="Layer_1" data-name="Layer 1" xmlns="http://www.w3.org/2000/svg" viewBox="0 0 80 80">
  <defs>
    <style>
      .cls-1 {
        fill: #eae1b9;
        stroke-width: 0px;
      }
    </style>
  </defs>
  <g id="psITWc.tif">
    <path class="cls-1" d="M40.02,5.4c-9.61,0-19.22-.01-28.83,0-4.89,0-8.68,3.16-9.6,7.95-.09.48-.1.98-.1,1.47,0,11.58-.01,23.16,0,34.74,0,4.96,3.69,8.99,8.65,9.36,4.86.36,9.73.08,14.59.13,3.02.03,6.04.02,9.05,0,.73,0,1.27.21,1.79.73,4.53,4.57,9.09,9.11,13.64,13.66.2.2.39.39.59.58.5.47,1.06.74,1.76.44.71-.3,1.02-.87,1.03-1.61.02-1.39.01-2.77.01-4.16,0-2.86.02-5.73-.02-8.59-.01-.8.24-1.07,1.06-1.07,4.9.03,9.79.02,14.69.01,2.96,0,5.58-.87,7.63-3.1,1.63-1.77,2.53-3.84,2.53-6.27,0-11.55,0-23.1,0-34.65,0-5.49-4.14-9.63-9.66-9.64-9.61-.02-19.22,0-28.83,0ZM55.36,27.78c-.38.39-.6.64-.84.87-2.05,2-4.09,4-6.16,5.98-.47.45-.64.87-.51,1.54.51,2.75.95,5.52,1.42,8.27.06.36.29.82,0,1.05-.36.3-.73-.13-1.06-.31-2.49-1.29-4.97-2.58-7.44-3.91-.55-.29-1-.3-1.55,0-2.49,1.34-5.01,2.65-7.52,3.96-.29.15-.61.5-.91.31-.37-.23-.13-.67-.08-1.02.47-2.79.91-5.58,1.44-8.36.13-.68-.07-1.09-.53-1.53-2.09-2-4.16-4.03-6.22-6.06-.22-.22-.59-.37-.52-.84,3.07-.45,6.14-.92,9.21-1.33.77-.1,1.26-.37,1.62-1.11,1.24-2.62,2.55-5.2,3.84-7.79.11-.21.16-.55.41-.57.35-.03.38.35.5.58,1.31,2.62,2.62,5.23,3.89,7.86.32.67.76.93,1.48,1.03,3.1.41,6.2.89,9.54,1.37Z"/>
  </g>
</svg>

<svg width="80" height="80" viewBox="0 0 80 80" fill="none" xmlns="http://www.w3.org/2000/svg">
<path d="M40.02 5.39998C30.41 5.39998 20.8 5.38998 11.19 5.39998C6.30004 5.39998 2.51004 8.55998 1.59004 13.35C1.50004 13.83 1.49004 14.33 1.49004 14.82C1.49004 26.4 1.48004 37.98 1.49004 49.56C1.49004 54.52 5.18004 58.55 10.14 58.92C15 59.28 19.87 59 24.73 59.05C27.75 59.08 30.77 59.07 33.78 59.05C34.51 59.05 35.05 59.26 35.57 59.78C40.1 64.35 44.66 68.89 49.21 73.44C49.41 73.64 49.6 73.83 49.8 74.02C50.3 74.49 50.86 74.76 51.56 74.46C52.27 74.16 52.58 73.59 52.59 72.85C52.61 71.46 52.6 70.08 52.6 68.69C52.6 65.83 52.62 62.96 52.58 60.1C52.57 59.3 52.82 59.03 53.64 59.03C58.54 59.06 63.43 59.05 68.33 59.04C71.29 59.04 73.91 58.17 75.96 55.94C77.59 54.17 78.49 52.1 78.49 49.67C78.49 38.12 78.49 26.57 78.49 15.02C78.49 9.52998 74.35 5.38998 68.83 5.37998C59.22 5.35998 49.61 5.37998 40 5.37998L40.02 5.39998ZM55.36 27.78C54.98 28.17 54.76 28.42 54.52 28.65C52.47 30.65 50.43 32.65 48.36 34.63C47.89 35.08 47.72 35.5 47.85 36.17C48.36 38.92 48.8 41.69 49.27 44.44C49.33 44.8 49.56 45.26 49.27 45.49C48.91 45.79 48.54 45.36 48.21 45.18C45.72 43.89 43.24 42.6 40.77 41.27C40.22 40.98 39.77 40.97 39.22 41.27C36.73 42.61 34.21 43.92 31.7 45.23C31.41 45.38 31.09 45.73 30.79 45.54C30.42 45.31 30.66 44.87 30.71 44.52C31.18 41.73 31.62 38.94 32.15 36.16C32.28 35.48 32.08 35.07 31.62 34.63C29.53 32.63 27.46 30.6 25.4 28.57C25.18 28.35 24.81 28.2 24.88 27.73C27.95 27.28 31.02 26.81 34.09 26.4C34.86 26.3 35.35 26.03 35.71 25.29C36.95 22.67 38.26 20.09 39.55 17.5C39.66 17.29 39.71 16.95 39.96 16.93C40.31 16.9 40.34 17.28 40.46 17.51C41.77 20.13 43.08 22.74 44.35 25.37C44.67 26.04 45.11 26.3 45.83 26.4C48.93 26.81 52.03 27.29 55.37 27.77L55.36 27.78Z" fill="#008A9B"/>
</svg>
